X: 7457
T: Clumsy Lover, The
R: reel
M: 4/4
K: Dmajor
|:G2|FAAB AFED|GBBG cBAG|FAAB AFED|G2EF GAFE|
FAAB AFED|GBBG cBAG|FAAF GE E2|FD D2 D2:|
|:G2|FAAd dAFD|GDGB dBGB|FAAd dAFD|G2EF GAFE|
FAAd dAFD|GDGB dBGB|FAAF GE E2|FD D2 D2:|
|:G2|FAAF AAFA|GBBG BBGB|FAAF AAFA|GEEF GAFE|
FAAF AAFA|GBBG BBGB|FAAF GE E2|FD D2 D2:|
|:G2|FddA dAFD|GddG dDGd|FddA dAFD|G2EF GAFE|
FddA dAFD|GddG dDGd|FAAF GE E2|FD D2 D2:|
|:G2|FAAD A2DA|G3B =c>BAG|FAAD A2DA|GEEF GAFE|
FAAD A2DA|G3B =c>BAG|FAAD GE E2|FD D2 D2:|
|:G2|FddF ddFd|GddG ddGd|FddF ddFd|EdFd GdEd|
FddA ddFd|GddB ddGd|FAAF GE E2|FD D2 D2|
|:FFdF FdFd|GGdG GdGd|FFdF FdFd|EdFd GdEd|
FFdF FdFd|GGdG GdGd|FAAF GE E2|FD D2 D3A||

